local/share/icons/dracula-icons-main/scalable/apps/ferdi.svg

<?xml version="1.0" encoding="UTF-8"?>
<svg xmlns="http://www.w3.org/2000/svg" xmlns:xlink="http://www.w3.org/1999/xlink" width="64" height="64" viewBox="0 0 64 64">
<defs>
<filter id="filter-remove-color" x="0%" y="0%" width="100%" height="100%">
<feColorMatrix color-interpolation-filters="sRGB" values="0 0 0 0 1 0 0 0 0 1 0 0 0 0 1 0 0 0 1 0" />
</filter>
<linearGradient id="linear-pattern-0" gradientUnits="userSpaceOnUse" x1="0" y1="1" x2="0" y2="47" gradientTransform="matrix(1.1739, 0, 0, 1.1739, 3.8261, 3.8261)">
<stop offset="0" stop-color="rgb(58.431373%, 51.764706%, 95.686275%)" stop-opacity="1"/>
<stop offset="1" stop-color="rgb(51.764706%, 44.313725%, 94.901961%)" stop-opacity="1"/>
</linearGradient>
<mask id="mask-0">
<g filter="url(#filter-remove-color)">
<rect x="-6.4" y="-6.4" width="76.8" height="76.8" fill="rgb(0%, 0%, 0%)" fill-opacity="0.15"/>
</g>
</mask>
<clipPath id="clip-0">
<rect x="0" y="0" width="64" height="64"/>
</clipPath>
<g id="source-2114" clip-path="url(#clip-0)">
<path fill-rule="nonzero" fill="rgb(100%, 100%, 100%)" fill-opacity="1" d="M 55 32 C 55 44.703125 44.703125 55 32 55 C 19.296875 55 9 44.703125 9 32 C 9 19.296875 19.296875 9 32 9 C 44.703125 9 55 19.296875 55 32 Z M 55 32 "/>
</g>
</defs>
<path fill-rule="nonzero" fill="url(#linear-pattern-0)" d="M 59 32 C 59 46.910156 46.910156 59 32 59 C 17.089844 59 5 46.910156 5 32 C 5 17.089844 17.089844 5 32 5 C 46.910156 5 59 17.089844 59 32 Z M 59 32 "/>
<g mask="url(#mask-0)">
<use xlink:href="#source-2114"/>
</g>
<path fill-rule="evenodd" fill="rgb(100%, 100%, 100%)" fill-opacity="1" d="M 27.5 23.328125 C 23.167969 23.328125 22.355469 29.753906 17.855469 29.753906 C 15.285156 29.753906 15.285156 27.183594 14 27.183594 C 14 31.042969 18.5 33.613281 22.355469 33.613281 C 28.785156 33.613281 28.144531 29.753906 32 29.753906 C 35.855469 29.753906 35.214844 33.613281 41.644531 33.613281 C 45.5 33.613281 50 31.042969 50 27.183594 C 48.714844 27.183594 48.714844 29.753906 46.144531 29.753906 C 41.644531 29.753906 40.832031 23.328125 36.5 23.328125 C 34.570312 23.328125 34.570312 24.613281 32 24.613281 C 29.429688 24.613281 29.429688 23.328125 27.5 23.328125 Z M 32 36.183594 C 30.644531 36.183594 28.144531 36.183594 28.144531 37.46875 C 28.144531 40.683594 30.714844 46.46875 32 46.46875 C 33.285156 46.46875 35.855469 40.683594 35.855469 37.46875 C 35.855469 36.183594 33.355469 36.183594 32 36.183594 Z M 32 36.183594 "/>
</svg>

<?xml version="1.0" encoding="UTF-8"?>
<svg width="64" height="64" version="1.1" viewBox="0 0 64 64" xmlns="http://www.w3.org/2000/svg" xmlns:cc="http://creativecommons.org/ns#" xmlns:dc="http://purl.org/dc/elements/1.1/" xmlns:rdf="http://www.w3.org/1999/02/22-rdf-syntax-ns#" xmlns:xlink="http://www.w3.org/1999/xlink">
 <metadata>
  <rdf:RDF>
   <cc:Work rdf:about="">
    <dc:format>image/svg+xml</dc:format>
    <dc:type rdf:resource="http://purl.org/dc/dcmitype/StillImage"/>
    <dc:title/>
   </cc:Work>
  </rdf:RDF>
 </metadata>
 <defs>
  <linearGradient id="linearGradient858" x2="0" y1="1" y2="47" gradientTransform="matrix(1.1739 0 0 1.1739 3.8261 3.8261)" gradientUnits="userSpaceOnUse">
   <stop stop-color="#9584f4" offset="0"/>
   <stop stop-color="#8471f2" offset="1"/>
  </linearGradient>
 </defs>
 <circle cx="32" cy="32" r="27" fill="url(#linearGradient858)" stroke-width="1.1739"/>
 <circle cx="32" cy="32" r="23" fill="#fff" opacity=".15" stroke-width=".99999"/>
 <path d="m27.5 23.327c-4.3326 0-5.1429 6.4286-9.6429 6.4286-2.5714 0-2.5714-2.5714-3.8571-2.5714 0 3.8571 4.5 6.4286 8.3571 6.4286 6.4286 0 5.7856-3.8571 9.6429-3.8571s3.2143 3.8571 9.6429 3.8571c3.8571 0 8.3571-2.5714 8.3571-6.4286-1.2857 0-1.2857 2.5714-3.8571 2.5714-4.5 0-5.3103-6.4286-9.6429-6.4286-1.9286 0-1.9286 1.2857-4.5 1.2857s-2.5714-1.2857-4.5-1.2857zm4.5 12.857c-1.3553 0-3.8571-8.22e-4 -3.8571 1.2857 0 3.2143 2.5714 9 3.8571 9s3.8571-5.7857 3.8571-9c0-1.2865-2.5019-1.2857-3.8571-1.2857z" fill="#fff" fill-rule="evenodd" stroke-width="1.2857"/>
</svg>
